svg/u1f98c.svg

<svg viewBox="0 0 128 128" xmlns="http://www.w3.org/2000/svg">
  <path d="M73.99,78.07L62.3,83.14c0,0,2.96,6.05,4.5,8.45s3.59,4.08,3.87,7.04 c0.28,2.96-1.15,12.06-2.42,14.45c-1.09,2.06-2.3,3.78-1.31,5.19s6.57,1.5,7.41,0.07c0.64-1.08,0.82-4.5,0.96-5.77 c0.14-1.27,0.84-6.26,1.41-10.21c0.36-2.51,1.2-4.15,1.34-5.84c0.14-1.69-2.55-3.93-3.52-5.63C72.3,86.94,73.99,78.07,73.99,78.07z" fill="#8A5B51"/>
  <path d="M86.1,66.88l3.73,2.46c0,0,5.28,0.14,6.48-4.86c0.93-3.89,0-7.93-1.76-6.76 c-0.42,0.28-2.04,5.56-2.04,5.56L86.1,66.88z" fill="#FFEAC3"/>
  <path d="M34.15,40.62l-2.96,0.28c0,0-1.38,0.61-2.44,0.89c-1.09,0.29-2.77,0.48-3.05,1.33 c-0.28,0.84-0.22,5.41,0.77,6.79c0.7,0.99,1.13,2.6,4.93,2.53c3.8-0.07,9.08-0.21,9.08-0.21L38.86,42.1L34.15,40.62z" fill="#FFEAC3"/>
  <path d="M50.69,33.23c0,0-2.32-3.17-6.73-2.7c-3.08,0.33-6.01,2.63-6.01,2.63s-3.03-5.56-5.7-7.67 s-8.45-4.5-9.43-3.17c-0.99,1.34,3.17,6.83,5.21,9.5s5.56,6.48,5.56,6.48s-1.06,1.83-2.6,2.64c1.62,0.21,3.68,0.75,5.23,2.97 c1.64,2.35,2.77,5.96,2.25,8.35c-0.46,2.11-3.12,5.4-2.77,12.22c0.35,6.83,1.83,10.98,3.1,13.09c1.27,2.11,4.36,5.98,4.36,5.98 s0.28,7.74,0.21,11.83c-0.07,4.08-0.84,11.47-1.55,15.06c-0.7,3.59-1.55,5.28-2.39,6.34c-0.84,1.06-2.37,3.33,0.25,3.94 c1.97,0.46,4.87,0.16,5.55-0.05c1.42-0.44,1.03-2.77,0.96-4.04c-0.07-1.27,1.62-11.43,2.04-15.72c0.41-4.12,1.22-9.25,1.5-11.64 c0.33-2.77,0.71-4.06,1.22-3.99c0.7,0.09,0.82,1.06,0.75,3.38C51.63,91,51.04,97.99,50.76,102c-0.28,4.01-1.38,13.77-1.6,14.55 c-0.21,0.77-2.28,2.87-2.06,4.53c0.19,1.43,1.9,2.04,4.08,2.04s3.7-0.59,3.85-1.78c0.19-1.55-0.12-2.65-0.19-4.34 c-0.07-1.69,1.41-13.3,1.6-15.6c0.16-1.98,1.78-10.72,2.06-11.85c0.28-1.13,0.41-2.43,0.66-3.03c0.19-0.47,5.33,0.28,9.69-1.83 c4.36-2.11,7.11-4.93,7.11-4.93s3.1,4.15,4.65,6.05s7.04,9.22,7.25,11.83c0.21,2.6,0.49,11.97,0.49,14.57c0,2.6-0.07,4.58-0.28,5.14 c-0.21,0.56-2.67,3.87-1.97,5.07c0.7,1.2,2.65,1.5,4.88,1.27c2.31-0.24,3.34-1.22,3.71-2.67c0.66-2.58-0.38-13.21-0.23-18.63 c0.14-5.42,0.94-7.27,0.38-8.68s-3.31-4.72-4.15-8.94c-0.84-4.22-0.07-7.39-0.07-11.12s-0.21-5.98-0.21-5.98s2.82-1.07,3.98-3.17 c1.16-2.11,1.58-6.83,0.53-6.97c-1.06-0.14-2.56,2.71-3.17,3.38c-1.03,1.13-3.1,1.62-3.1,1.62s-2.32-6.26-9.15-7.53 c-6.83-1.27-15.1,2.19-19.43,3.03c-4.36,0.84-7.04,1.41-7.74,0.14c-0.7-1.27,0.21-3.8,1.69-6.26c1.48-2.46,2.23-4.08,2.44-5.77 s0.23-3.45,0.23-3.45s5.07-0.92,8.17-4.36c3.1-3.45,5.84-10.7,6.76-12.53c0.92-1.83,1.69-2.18,1.27-3.17 c-0.42-0.99-6.12-1.27-9.64-0.28c-3.2,0.9-7.74,3.8-9.57,6.12C51.82,30.77,50.69,33.23,50.69,33.23z" fill="#D17856"/>
  <path d="M54.75,37.9c-1.42-1.36-1.22-3.71,1.08-6.52s5.1-4.55,7.65-5.54c2.06-0.8,4.91-1.58,5.54-0.99 c0.29,0.28-1.47,3.84-3.58,7.25c-1.94,3.14-4.35,5.51-6.23,6.22C57.55,38.94,55.83,38.93,54.75,37.9z" fill="#FFEAC3"/>
  <path d="M25.88,25.07c-0.33,0.61,1.59,2.88,4.26,6.34c2.03,2.63,3.39,4.57,4.41,4.74 c0.63,0.11,1.28-0.5,1.06-1.48c-0.39-1.69-1.85-3.73-3.8-5.73C29.55,26.64,26.21,24.46,25.88,25.07z" fill="#FFEAC3"/>
  <path d="M46.62,40.55c-0.11,1.65-0.75,2.7-2.29,2.82c-1.24,0.1-2.29-1.39-2.29-2.89s1.05-2.56,2.29-2.56 S46.73,39.05,46.62,40.55z" fill="#0A070B"/>
  <path d="M26.86,48.93c0,0,2.78-1.76,2.78-3.2c0-1.13-1.08-2.05-2.18-2.71c-0.61-0.36-1.51-0.6-1.94-0.04 c-0.42,0.56-1.02,2.04-0.63,4.47c0.39,2.43,1.65,2.89,1.65,2.89s-0.7,1.27,3.66,1.16c4.36-0.11,4.43-1.2,4.33-1.83 c-0.11-0.63-2.75-0.6-4.15-0.39C28.31,49.6,26.86,48.93,26.86,48.93z" fill="#2C2A32"/>
  <path d="M47.8,32.25c0,0,2.25-5.42,2.75-7.5c0.38-1.61,0.42-4.5,0.46-6.23c0.01-0.65-0.42-1.2-0.39-2.25 c0.04-1.19,0.69-2.38,2.25-2.43c1.45-0.04,2.29,0.99,2.36,2.15c0.07,1.2-0.49,1.83-0.53,2.53c-0.11,1.87-0.32,5.56-0.32,5.56 s2.85-2.67,3.17-3.48s0.35-4.89,0.35-5.7c0-0.81,0-1.94,0-1.94s-0.83-1.18-0.81-2.22c0.01-0.83,0.63-2.08,2.01-2.11 c1.49-0.04,2.12,0.94,2.22,1.97c0.09,1.03-0.42,1.97-0.42,1.97l-0.14,4.33c0,0,1.58-2.08,2.22-2.96c0.63-0.88,1.34-2.29,1.34-2.29 s-0.36-1.17-0.21-2.32c0.14-1.04,0.84-2.18,2.29-2.22c1.41-0.03,2.18,1.06,2.18,2.22c0,1.76-1.06,2.96-1.06,2.96s-2.6,5.1-4.61,7.74 c-1.46,1.92-2.46,3.34-3.1,3.73c-0.63,0.39-4.65,2.64-6.48,5.35c-1.17,1.73-2.64,4.12-2.64,4.12s-0.69,1.01-1.97,0.53 C47.7,33.37,47.8,32.25,47.8,32.25z" fill="#BD9178"/>
  <path d="M23.52,10.78c0,0,2.01,5.1,3.41,7.88s3.48,5.63,3.48,5.63s2.87,2.15,3.8,3.27 c1.69,2.04,3.63,5.81,3.63,5.81l2.31-1.62l-2.06-3.55c0,0-0.04-3.63-0.04-5.03c0-1.16,0.04-3.2,0.04-3.2s0.69-1.07,0.74-2.15 c0.06-1.22-0.59-2.46-2.04-2.53c-1.37-0.07-2.15,1.12-2.25,2.18c-0.11,1.06,0.46,2.01,0.46,2.01l-0.14,5.74c0,0-0.77-1.44-1.06-1.83 s-0.97-2-1.13-2.29c-0.32-0.6,0.32-5.63,0.32-6.44c0-0.81,0.21-3.17,0.21-3.17s0.68-1.03,0.67-2.18C33.86,8.28,33.25,7.14,32,7.05 c-1.41-0.11-2.15,0.9-2.32,1.83c-0.21,1.14,0.28,2.11,0.28,2.11s-0.22,5.13-0.56,5.03c-0.39-0.11-2.75-6.26-2.75-6.26 s0.54-1.28,0.14-2.89c-0.37-1.49-1.58-2.43-3.31-1.94c-1.74,0.5-2.08,2.32-1.51,3.73C22.48,9.94,23.52,10.78,23.52,10.78z" fill="#BD9178"/>
</svg>

<svg viewBox="0 0 128 128" xmlns="http://www.w3.org/2000/svg">
  <defs/>
  <path d="M73.99,78.07 L62.3,83.14 C62.3,83.14 65.26,89.19 66.8,91.59 C68.34,93.99 70.39,95.67 70.67,98.63 C70.95,101.59 69.52,110.69 68.25,113.08 C67.16,115.14 65.95,116.86 66.94,118.27 C67.93,119.68 73.51,119.77 74.35,118.34 C74.99,117.26 75.17,113.84 75.31,112.57 C75.45,111.3 76.15,106.31 76.72,102.36 C77.08,99.85 77.92,98.21 78.06,96.52 C78.2,94.83 75.51,92.59 74.54,90.89 C72.3,86.94 73.99,78.07 73.99,78.07 Z" fill="#8A5B51"/>
  <path d="M86.1,66.88 L89.83,69.34 C89.83,69.34 95.11,69.48 96.31,64.48 C97.24,60.59 96.31,56.55 94.55,57.72 C94.13,58 92.51,63.28 92.51,63.28 L86.1,66.88 Z" fill="#FFEAC3"/>
  <path d="M34.15,40.62 L31.19,40.9 C31.19,40.9 29.81,41.51 28.75,41.79 C27.66,42.08 25.98,42.27 25.7,43.12 C25.42,43.96 25.48,48.53 26.47,49.91 C27.17,50.9 27.6,52.51 31.4,52.44 C35.2,52.37 40.48,52.23 40.48,52.23 L38.86,42.1 L34.15,40.62 Z" fill="#FFEAC3"/>
  <path d="M50.69,33.23 C50.69,33.23 48.37,30.06 43.96,30.53 C40.88,30.86 37.95,33.16 37.95,33.16 C37.95,33.16 34.92,27.6 32.25,25.49 C29.58,23.38 23.8,20.99 22.82,22.32 C21.83,23.66 25.99,29.15 28.03,31.82 C30.07,34.49 33.59,38.3 33.59,38.3 C33.59,38.3 32.53,40.13 30.99,40.94 C32.61,41.15 34.67,41.69 36.22,43.91 C37.86,46.26 38.99,49.87 38.47,52.26 C38.01,54.37 35.35,57.66 35.7,64.48 C36.05,71.31 37.53,75.46 38.8,77.57 C40.07,79.68 43.16,83.55 43.16,83.55 C43.16,83.55 43.44,91.29 43.37,95.38 C43.3,99.46 42.53,106.85 41.82,110.44 C41.12,114.03 40.27,115.72 39.43,116.78 C38.59,117.84 37.06,120.11 39.68,120.72 C41.65,121.18 44.55,120.88 45.23,120.67 C46.65,120.23 46.26,117.9 46.19,116.63 C46.12,115.36 47.81,105.2 48.23,100.91 C48.64,96.79 49.45,91.66 49.73,89.27 C50.06,86.5 50.44,85.21 50.95,85.28 C51.65,85.37 51.77,86.34 51.7,88.66 C51.63,91 51.04,97.99 50.76,102 C50.48,106.01 49.38,115.77 49.16,116.55 C48.95,117.32 46.88,119.42 47.1,121.08 C47.29,122.51 49,123.12 51.18,123.12 C53.36,123.12 54.88,122.53 55.03,121.34 C55.22,119.79 54.91,118.69 54.84,117 C54.77,115.31 56.25,103.7 56.44,101.4 C56.6,99.42 58.22,90.68 58.5,89.55 C58.78,88.42 58.91,87.12 59.16,86.52 C59.35,86.05 64.49,86.8 68.85,84.69 C73.21,82.58 75.96,79.76 75.96,79.76 C75.96,79.76 79.06,83.91 80.61,85.81 C82.16,87.71 87.65,95.03 87.86,97.64 C88.07,100.24 88.35,109.61 88.35,112.21 C88.35,114.81 88.28,116.79 88.07,117.35 C87.86,117.91 85.4,121.22 86.1,122.42 C86.8,123.62 88.75,123.92 90.98,123.69 C93.29,123.45 94.32,122.47 94.69,121.02 C95.35,118.44 94.31,107.81 94.46,102.39 C94.6,96.97 95.4,95.12 94.84,93.71 C94.28,92.3 91.53,88.99 90.69,84.77 C89.85,80.55 90.62,77.38 90.62,73.65 C90.62,69.92 90.41,67.67 90.41,67.67 C90.41,67.67 93.23,66.6 94.39,64.5 C95.55,62.39 95.97,57.67 94.92,57.53 C93.86,57.39 92.36,60.24 91.75,60.91 C90.72,62.04 88.65,62.53 88.65,62.53 C88.65,62.53 86.33,56.27 79.5,55 C72.67,53.73 64.4,57.19 60.07,58.03 C55.71,58.87 53.03,59.44 52.33,58.17 C51.63,56.9 52.54,54.37 54.02,51.91 C55.5,49.45 56.25,47.83 56.46,46.14 C56.67,44.45 56.69,42.69 56.69,42.69 C56.69,42.69 61.76,41.77 64.86,38.33 C67.96,34.88 70.7,27.63 71.62,25.8 C72.54,23.97 73.31,23.62 72.89,22.63 C72.47,21.64 66.77,21.36 63.25,22.35 C60.05,23.25 55.51,26.15 53.68,28.47 C51.82,30.77 50.69,33.23 50.69,33.23 Z" fill="#D17856"/>
  <path d="M54.75,37.9 C53.33,36.54 53.53,34.19 55.83,31.38 C58.13,28.57 60.93,26.83 63.48,25.84 C65.54,25.04 68.39,24.26 69.02,24.85 C69.31,25.13 67.55,28.69 65.44,32.1 C63.5,35.24 61.09,37.61 59.21,38.32 C57.55,38.94 55.83,38.93 54.75,37.9 Z" fill="#FFEAC3"/>
  <path d="M25.88,25.07 C25.55,25.68 27.47,27.95 30.14,31.41 C32.17,34.04 33.53,35.98 34.55,36.15 C35.18,36.26 35.83,35.65 35.61,34.67 C35.22,32.98 33.76,30.94 31.81,28.94 C29.55,26.64 26.21,24.46 25.88,25.07 Z" fill="#FFEAC3"/>
  <path d="M46.62,40.55 C46.51,42.2 45.87,43.25 44.33,43.37 C43.09,43.47 42.04,41.98 42.04,40.48 C42.04,38.98 43.09,37.92 44.33,37.92 C45.57,37.92 46.73,39.05 46.62,40.55 Z" fill="#0A070B"/>
  <path d="M26.86,48.93 C26.86,48.93 29.64,47.17 29.64,45.73 C29.64,44.6 28.56,43.68 27.46,43.02 C26.85,42.66 25.95,42.42 25.52,42.98 C25.1,43.54 24.5,45.02 24.89,47.45 C25.28,49.88 26.54,50.34 26.54,50.34 C26.54,50.34 25.84,51.61 30.2,51.5 C34.56,51.39 34.63,50.3 34.53,49.67 C34.42,49.04 31.78,49.07 30.38,49.28 C28.31,49.6 26.86,48.93 26.86,48.93 Z" fill="#2C2A32"/>
  <path d="M47.8,32.25 C47.8,32.25 50.05,26.83 50.55,24.75 C50.93,23.14 50.97,20.25 51.01,18.52 C51.02,17.87 50.59,17.32 50.62,16.27 C50.66,15.08 51.31,13.89 52.87,13.84 C54.32,13.8 55.16,14.83 55.23,15.99 C55.3,17.19 54.74,17.82 54.7,18.52 C54.59,20.39 54.38,24.08 54.38,24.08 C54.38,24.08 57.23,21.41 57.55,20.6 C57.87,19.79 57.9,15.71 57.9,14.9 C57.9,14.09 57.9,12.96 57.9,12.96 C57.9,12.96 57.07,11.78 57.09,10.74 C57.1,9.91 57.72,8.66 59.1,8.63 C60.59,8.59 61.22,9.57 61.32,10.6 C61.41,11.63 60.9,12.57 60.9,12.57 L60.76,16.9 C60.76,16.9 62.34,14.82 62.98,13.94 C63.61,13.06 64.32,11.65 64.32,11.65 C64.32,11.65 63.96,10.48 64.11,9.33 C64.25,8.29 64.95,7.15 66.4,7.11 C67.81,7.08 68.58,8.17 68.58,9.33 C68.58,11.09 67.52,12.29 67.52,12.29 C67.52,12.29 64.92,17.39 62.91,20.03 C61.45,21.95 60.45,23.37 59.81,23.76 C59.18,24.15 55.16,26.4 53.33,29.11 C52.16,30.84 50.69,33.23 50.69,33.23 C50.69,33.23 50,34.24 48.72,33.76 C47.7,33.37 47.8,32.25 47.8,32.25 Z" fill="#BD9178"/>
  <path d="M23.52,10.78 C23.52,10.78 25.53,15.88 26.93,18.66 C28.33,21.44 30.41,24.29 30.41,24.29 C30.41,24.29 33.28,26.44 34.21,27.56 C35.9,29.6 37.84,33.37 37.84,33.37 L40.15,31.75 L38.09,28.2 C38.09,28.2 38.05,24.57 38.05,23.17 C38.05,22.01 38.09,19.97 38.09,19.97 C38.09,19.97 38.78,18.9 38.83,17.82 C38.89,16.6 38.24,15.36 36.79,15.29 C35.42,15.22 34.64,16.41 34.54,17.47 C34.43,18.53 35,19.48 35,19.48 L34.86,25.22 C34.86,25.22 34.09,23.78 33.8,23.39 C33.51,23 32.83,21.39 32.67,21.1 C32.35,20.5 32.99,15.47 32.99,14.66 C32.99,13.85 33.2,11.49 33.2,11.49 C33.2,11.49 33.88,10.46 33.87,9.31 C33.86,8.28 33.25,7.14 32,7.05 C30.59,6.94 29.85,7.95 29.68,8.88 C29.47,10.02 29.96,10.99 29.96,10.99 C29.96,10.99 29.74,16.12 29.4,16.02 C29.01,15.91 26.65,9.76 26.65,9.76 C26.65,9.76 27.19,8.48 26.79,6.87 C26.42,5.38 25.21,4.44 23.48,4.93 C21.74,5.43 21.4,7.25 21.97,8.66 C22.48,9.94 23.52,10.78 23.52,10.78 Z" fill="#BD9178"/>
</svg>
